icons/Business/projector-2-line.svg

<svg viewBox="0 0 24 24" xmlns="http://www.w3.org/2000/svg"><path d="M22 19V21H20V19H4V21H2V19C1.44772 19 1 18.5523 1 18V6C1 5.44772 1.44772 5 2 5H12.5278C13.6264 3.7725 15.223 3 17 3C18.777 3 20.3736 3.7725 21.4722 5H22C22.5523 5 23 5.44772 23 6V18C23 18.5523 22.5523 19 22 19ZM11.3414 7H3V17H21V13.4722C19.9385 14.4223 18.5367 15 17 15C13.6863 15 11 12.3137 11 9C11 8.29873 11.1203 7.62556 11.3414 7ZM17 13C19.2091 13 21 11.2091 21 9C21 6.79086 19.2091 5 17 5C14.7909 5 13 6.79086 13 9C13 11.2091 14.7909 13 17 13ZM5 13H7V15H5V13ZM8 13H10V15H8V13Z"/></svg>

<svg xmlns="http://www.w3.org/2000/svg" viewBox="0 0 24 24">
    <g>
        <path fill="none" d="M0 0h24v24H0z"/>
        <path d="M22 19v2h-2v-2H4v2H2v-2a1 1 0 0 1-1-1V6a1 1 0 0 1 1-1h10.528A5.985 5.985 0 0 1 17 3c1.777 0 3.374.773 4.472 2H22a1 1 0 0 1 1 1v12a1 1 0 0 1-1 1zM11.341 7H3v10h18v-3.528A6 6 0 0 1 11.341 7zM17 13a4 4 0 1 0 0-8 4 4 0 0 0 0 8zM5 13h2v2H5v-2zm3 0h2v2H8v-2z"/>
    </g>
</svg>
